; generated by PrusaSlicer 2.7.4+win64 on 2024-05-16 at 09:51:52 UTC


;
;
; 

; external perimeters extrusion width = 0.45mm
; perimeters extrusion width = 0.45mm
; infill extrusion width = 0.45mm
; solid infill extrusion width = 0.45mm
; top infill extrusion width = 0.40mm
; support material extrusion width = 0.35mm
; first layer extrusion width = 0.42mm

M73 P0 R101
M73 Q0 S102
M201 X1000 Y1000 Z200 E5000 ; sets maximum accelerations, mm/sec^2
M203 X200 Y200 Z12 E120 ; sets maximum feedrates, mm / sec
M204 S1250 T1250 ; sets acceleration (S) and retract acceleration (R), mm/sec^2
M205 X8.00 Y8.00 Z0.40 E4.50 ; sets the jerk limits, mm/sec
M205 S0 T0 ; sets the minimum extruding and travel feed rate, mm/sec

; printing object MaleBase.stl id:1 copy 0
; stop printing object MaleBase.stl id:1 copy 0

;TYPE:Custom
M862.3 P "MK3S" ; printer model check
M862.1 P0.4 ; nozzle diameter check
M115 U3.13.3 ; tell printer latest fw version
G90 ; use absolute coordinates
M83 ; extruder relative mode
M104 S215 ; set extruder temp
M140 S60 ; set bed temp
M190 S60 ; wait for bed temp
M109 S215 ; wait for extruder temp
G28 W ; home all without mesh bed level
G80 X100.522 Y74.5134 W68.1301 H68.1301 ; mesh bed levelling

G1 Z0.2 F720
G1 Y-3 F1000 ; go outside print area
G92 E0
G1 X60 E9 F1000 ; intro line
G1 X100 E12.5 F1000 ; intro line

G92 E0
M221 S95

; Don't change E values below. Excessive value can damage the printer.

M907 E538 ; set extruder motor current
G21 ; set units to millimeters
G90 ; use absolute coordinates
M83 ; use relative distances for extrusion

M900 K0.05 ; Filament gcode LA 1.5
M900 K30 ; Filament gcode LA 1.0




M107
;LAYER_CHANGE
;Z:0.2
;HEIGHT:0.2
G1 E-.8 F2100
G1 Z.6 F720
G1 X107.89 Y87.724 F10800
G1 Z.2 F720
G1 E.8 F2100
M204 S800
;TYPE:Skirt/Brim
;WIDTH:0.42
G1 F1200
G1 X109.123 Y86.239 E.06052
G1 X110.68 Y84.577 E.07141
G1 X112.154 Y83.193 E.0634
G1 X113.629 Y81.964 E.0602
G1 X115.469 Y80.614 E.07155
G1 X117.042 Y79.599 E.0587
G1 X118.818 Y78.595 E.06397
G1 X120.653 Y77.7 E.06401
G1 X122.467 Y76.945 E.06161
G1 X124.746 Y76.165 E.07553
G1 X126.521 Y75.676 E.05773
G1 X128.447 Y75.263 E.06176
G1 X130.468 Y74.953 E.06411
G1 X132.306 Y74.781 E.05788
G1 X134.66 Y74.702 E.07385
G1 X136.593 Y74.761 E.06064
G1 X138.429 Y74.923 E.05779
G1 X140.921 Y75.301 E.07903
G1 X142.726 Y75.694 E.05792
G1 X144.695 Y76.245 E.06411
G1 X146.6 Y76.903 E.06319
G1 X148.368 Y77.633 E.05997
G1 X150.41 Y78.625 E.07118
G1 X152.132 Y79.599 E.06203
G1 X153.845 Y80.708 E.06398
G1 X155.441 Y81.882 E.06212
G1 X156.926 Y83.115 E.06052
G1 X158.589 Y84.672 E.07143
G1 X159.972 Y86.146 E.06337
G1 X161.201 Y87.62 E.06017
G1 X162.551 Y89.461 E.07158
G1 X163.566 Y91.033 E.05867
G1 X164.57 Y92.81 E.06399
M73 P0 R100
G1 X165.465 Y94.644 E.06399
G1 X166.22 Y96.459 E.06164
G1 X167 Y98.738 E.07553
G1 X167.489 Y100.513 E.05773
G1 X167.902 Y102.439 E.06176
G1 X168.212 Y104.46 E.06411
G1 X168.384 Y106.297 E.05785
G1 X168.463 Y108.616 E.07275
G1 X168.404 Y110.585 E.06176
G1 X168.242 Y112.421 E.05779
G1 X167.864 Y114.913 E.07903
G1 X167.471 Y116.717 E.05789
G1 X166.92 Y118.687 E.06414
G1 X166.262 Y120.592 E.06319
G1 X165.532 Y122.359 E.05994
G1 X164.54 Y124.402 E.07121
G1 X163.566 Y126.123 E.062
G1 X162.457 Y127.837 E.06401
G1 X161.283 Y129.433 E.06212
G1 X160.05 Y130.918 E.06052
G1 X158.493 Y132.58 E.07141
G1 X157.019 Y133.963 E.06337
G1 X155.545 Y135.193 E.06019
G1 X153.704 Y136.543 E.07158
G1 X152.132 Y137.558 E.05867
G1 X150.355 Y138.562 E.06399
G1 X148.521 Y139.457 E.06399
G1 X146.706 Y140.212 E.06164
G1 X144.427 Y140.992 E.07553
G1 X142.652 Y141.481 E.05773
G1 X140.727 Y141.894 E.06173
G1 X138.705 Y142.204 E.06414
G1 X136.868 Y142.376 E.05785
G1 X134.549 Y142.455 E.07275
G1 X132.58 Y142.395 E.06177
G1 X130.744 Y142.234 E.05779
G1 X128.252 Y141.855 E.07903
G1 X126.448 Y141.463 E.05788
G1 X124.478 Y140.912 E.06414
G1 X122.573 Y140.254 E.06319
G1 X120.806 Y139.524 E.05994
G1 X118.763 Y138.532 E.07121
G1 X117.042 Y137.558 E.062
G1 X115.329 Y136.449 E.06398
G1 X113.732 Y135.275 E.06215
G1 X112.247 Y134.042 E.06052
G1 X110.585 Y132.485 E.07141
G1 X109.202 Y131.011 E.06337
G1 X107.972 Y129.537 E.06019
G1 X106.622 Y127.696 E.07158
G1 X105.607 Y126.123 E.0587
G1 X104.603 Y124.347 E.06397
G1 X103.708 Y122.512 E.06401
G1 X102.953 Y120.698 E.06161
G1 X102.173 Y118.419 E.07553
G1 X101.684 Y116.644 E.05773
G1 X101.271 Y114.718 E.06176
G1 X100.961 Y112.697 E.06411
G1 X100.789 Y110.86 E.05785
G1 X100.71 Y108.541 E.07275
G1 X100.77 Y106.572 E.06177
G1 X100.931 Y104.736 E.05779
G1 X101.31 Y102.244 E.07903
G1 X101.702 Y100.439 E.05791
G1 X102.253 Y98.47 E.06411
G1 X102.911 Y96.565 E.06319
G1 X103.641 Y94.798 E.05994
G1 X104.633 Y92.755 E.07121
G1 X105.607 Y91.033 E.06203
G1 X106.716 Y89.32 E.06398
G1 X107.854 Y87.772 E.06024
M204 S1000
;WIPE_START
G1 F8640
G1 X107.89 Y87.724 E-.01385
G1 X109.123 Y86.239 E-.44568
G1 X110.131 Y85.163 E-.34047
;WIPE_END
G1 Z.6 F720
; printing object MaleBase.stl id:1 copy 0
G1 X162.457 Y112.999 F10800
G1 Z.2 F720
G1 E.8 F2100
M204 S800
;TYPE:Perimeter
;WIDTH:0.419999
G1 F1200
G1 X162.693 Y112.861 E.00857
G1 X163.181 Y112.46 E.0198
G1 X163.582 Y112.035 E.01832
G1 X163.306 Y113.874 E.05831
G1 X162.95 Y115.532 E.05317
G1 X162.458 Y117.297 E.05745
G1 X161.89 Y118.94 E.05451
G1 X161.221 Y120.555 E.05481
G1 X160.443 Y122.154 E.05575
G1 X159.577 Y123.69 E.05529
G1 X158.619 Y125.17 E.05528
G1 X157.574 Y126.59 E.05528
G1 X156.456 Y127.932 E.05477
G1 X155.236 Y129.229 E.05583
G1 X153.953 Y130.437 E.05525
G1 X152.599 Y131.566 E.05528
G1 X151.165 Y132.62 E.0558
G1 X149.698 Y133.568 E.05476
G1 X148.162 Y134.435 E.0553
G1 X146.577 Y135.207 E.05528
G1 X144.95 Y135.881 E.05522
G1 X143.24 Y136.47 E.05671
G1 X141.607 Y136.925 E.05315
G1 X139.882 Y137.298 E.05534
G1 X138.043 Y137.574 E.05831
G1 X138.469 Y137.173 E.01834
G1 X138.869 Y136.684 E.01981
G1 X139.134 Y136.274 E.01531
G1 X139.549 Y135.414 E.02994
G1 X139.7 Y134.915 E.01635
G1 X139.811 Y134.41 E.01621
G1 X139.873 Y133.782 E.01979
G1 X139.873 Y133.375 E.01276
G1 X139.809 Y132.726 E.02045
G1 X139.643 Y132.053 E.02173
G1 X139.393 Y131.368 E.02286
G1 X139.095 Y130.81 E.01983
G1 X138.869 Y130.472 E.01275
G1 X138.49 Y130.01 E.01874
G1 X138.181 Y129.697 E.01379
G1 X137.693 Y129.296 E.0198
G1 X137.355 Y129.07 E.01275
G1 X136.798 Y128.772 E.01981
G1 X136.422 Y128.617 E.01275
G1 X135.541 Y128.37 E.02869
G1 X135.008 Y128.318 E.01679
G1 X134.345 Y128.296 E.0208
G1 X133.755 Y128.354 E.01859
G1 X133.356 Y128.433 E.01275
G1 X132.751 Y128.617 E.01983
G1 X132.376 Y128.772 E.01272
G1 X131.819 Y129.07 E.01981
G1 X131.481 Y129.296 E.01275
G1 X130.992 Y129.697 E.01983
G1 X130.705 Y129.984 E.01273
G1 X130.304 Y130.472 E.0198
G1 X130.078 Y130.81 E.01275
G1 X129.727 Y131.475 E.02358
G1 X129.527 Y132.067 E.01959
G1 X129.362 Y132.746 E.02191
G1 X129.3 Y133.375 E.01982
G1 X129.3 Y133.782 E.01276
G1 X129.362 Y134.41 E.01979
G1 X129.493 Y134.98 E.01834
G1 X129.78 Y135.789 E.02691
G1 X130.304 Y136.684 E.03252
G1 X130.705 Y137.173 E.01983
G1 X131.13 Y137.574 E.01832
G1 X129.291 Y137.297 E.05831
G1 X127.633 Y136.942 E.05316
G1 X125.868 Y136.45 E.05745
G1 X124.225 Y135.882 E.05451
G1 X122.61 Y135.213 E.05481
G1 X121.011 Y134.435 E.05575
G1 X119.475 Y133.568 E.0553
G1 X117.995 Y132.611 E.05526
G1 X116.575 Y131.566 E.05528
G1 X115.233 Y130.447 E.05479
G1 X113.936 Y129.228 E.05581
G1 X112.728 Y127.945 E.05525
G1 X111.599 Y126.591 E.05528
G1 X110.545 Y125.157 E.0558
G1 X109.597 Y123.69 E.05476
G1 X108.73 Y122.154 E.0553
G1 X107.958 Y120.569 E.05528
G1 X107.284 Y118.941 E.05525
G1 X106.695 Y117.232 E.05668
G1 X106.24 Y115.598 E.05318
G1 X105.868 Y113.873 E.05533
G1 X105.592 Y112.035 E.05828
G1 X105.992 Y112.46 E.0183
G1 X106.481 Y112.861 E.01983
G1 X106.891 Y113.126 E.01531
G1 X107.751 Y113.54 E.02993
G1 X108.25 Y113.691 E.01635
G1 X108.755 Y113.803 E.01622
G1 X109.383 Y113.865 E.01979
G1 X109.79 Y113.865 E.01276
G1 X110.439 Y113.801 E.02045
G1 X111.112 Y113.634 E.02174
G1 X111.798 Y113.385 E.02288
G1 X112.355 Y113.087 E.01981
G1 X112.693 Y112.861 E.01275
G1 X113.155 Y112.482 E.01874
G1 X113.469 Y112.173 E.01381
G1 X113.869 Y111.684 E.01981
G1 X114.095 Y111.346 E.01275
G1 X114.393 Y110.789 E.01981
G1 X114.549 Y110.414 E.01273
G1 X114.732 Y109.809 E.01982
G1 X114.811 Y109.41 E.01275
G1 X114.869 Y108.825 E.01843
G1 X114.873 Y108.375 E.01411
G1 X114.811 Y107.746 E.01982
G1 X114.732 Y107.348 E.01272
G1 X114.549 Y106.743 E.01982
G1 X114.393 Y106.368 E.01273
G1 X114.095 Y105.81 E.01983
G1 X113.869 Y105.472 E.01275
G1 X113.469 Y104.984 E.01978
G1 X113.181 Y104.697 E.01275
G1 X112.693 Y104.296 E.0198
G1 X112.355 Y104.07 E.01275
G1 X111.69 Y103.719 E.02358
G1 X111.098 Y103.518 E.0196
G1 X110.393 Y103.351 E.02272
G1 X109.34 Y103.296 E.03306
G1 X108.755 Y103.354 E.01843
G1 X108.185 Y103.485 E.01834
G1 X107.376 Y103.772 E.02691
G1 X106.481 Y104.296 E.03252
G1 X105.992 Y104.697 E.01983
G1 X105.592 Y105.122 E.0183
G1 X105.868 Y103.282 E.05834
G1 X106.224 Y101.625 E.05314
G1 X106.715 Y99.859 E.05747
G1 X107.283 Y98.217 E.05448
G1 X107.952 Y96.602 E.05481
G1 X108.731 Y95.002 E.0558
G1 X109.597 Y93.467 E.05526
G1 X110.554 Y91.987 E.05526
G1 X111.599 Y90.567 E.05528
G1 X112.718 Y89.224 E.05481
G1 X113.937 Y87.928 E.05579
G1 X115.221 Y86.72 E.05528
G1 X116.575 Y85.591 E.05528
G1 X118.008 Y84.537 E.05578
G1 X119.475 Y83.589 E.05476
G1 X121.011 Y82.722 E.0553
G1 X122.596 Y81.95 E.05528
G1 X124.225 Y81.275 E.05529
G1 X125.869 Y80.707 E.05454
G1 X127.567 Y80.232 E.05528
G1 X129.358 Y79.847 E.05744
G1 X131.13 Y79.583 E.05617
G1 X130.705 Y79.984 E.01832
G1 X130.304 Y80.472 E.0198
G1 X130.071 Y80.824 E.01324
G1 X129.625 Y81.743 E.03203
G1 X129.474 Y82.242 E.01635
G1 X129.362 Y82.746 E.01619
G1 X129.3 Y83.375 E.01982
G1 X129.3 Y83.782 E.01276
G1 X129.364 Y84.429 E.02039
G1 X129.531 Y85.104 E.0218
G1 X129.78 Y85.789 E.02285
G1 X130.078 Y86.346 E.01981
G1 X130.304 Y86.684 E.01275
G1 X130.684 Y87.147 E.01878
G1 X130.992 Y87.46 E.01377
G1 X131.481 Y87.861 E.01983
G1 X131.819 Y88.087 E.01275
G1 X132.376 Y88.385 E.01981
G1 X132.751 Y88.54 E.01272
G1 X133.356 Y88.724 E.01983
G1 X133.755 Y88.803 E.01275
G1 X134.383 Y88.865 E.01979
G1 X134.79 Y88.865 E.01276
G1 X135.419 Y88.803 E.01982
G1 X135.817 Y88.724 E.01272
G1 X136.422 Y88.54 E.01983
G1 X136.798 Y88.385 E.01275
G1 X137.355 Y88.087 E.01981
G1 X137.693 Y87.861 E.01275
G1 X138.181 Y87.46 E.0198
G1 X138.469 Y87.173 E.01275
G1 X138.869 Y86.684 E.01981
G1 X139.095 Y86.346 E.01275
G1 X139.446 Y85.682 E.02355
G1 X139.647 Y85.09 E.0196
G1 X139.811 Y84.41 E.02193
G1 X139.873 Y83.782 E.01979
G1 X139.873 Y83.375 E.01276
G1 X139.811 Y82.746 E.01982
G1 X139.68 Y82.177 E.01831
G1 X139.393 Y81.368 E.02691
G1 X138.869 Y80.472 E.03254
G1 X138.469 Y79.984 E.01978
G1 X138.043 Y79.583 E.01834
G1 X139.883 Y79.859 E.05834
G1 X141.54 Y80.215 E.05314
G1 X143.306 Y80.707 E.05748
G1 X144.949 Y81.275 E.05451
G1 X146.563 Y81.944 E.05478
G1 X148.163 Y82.722 E.05578
G1 X149.698 Y83.588 E.05526
G1 X151.178 Y84.546 E.05528
G1 X152.598 Y85.591 E.05528
G1 X153.941 Y86.709 E.05479
G1 X155.237 Y87.929 E.05581
G1 X156.445 Y89.212 E.05525
G1 X157.574 Y90.566 E.05528
G1 X158.628 Y92 E.0558
G1 X159.577 Y93.467 E.05478
G1 X160.443 Y95.003 E.05529
G1 X161.215 Y96.588 E.05528
G1 X161.89 Y98.216 E.05526
G1 X162.478 Y99.925 E.05667
G1 X162.934 Y101.559 E.05319
G1 X163.306 Y103.284 E.05533
G1 X163.582 Y105.122 E.05828
G1 X163.181 Y104.697 E.01832
G1 X162.693 Y104.296 E.0198
G1 X162.282 Y104.031 E.01533
G1 X161.422 Y103.617 E.02993
G1 X160.924 Y103.465 E.01633
G1 X160.393 Y103.351 E.01703
G1 X159.34 Y103.296 E.03306
G1 X158.735 Y103.356 E.01906
G1 X158.062 Y103.522 E.02173
G1 X157.376 Y103.772 E.02289
G1 X156.819 Y104.07 E.01981
G1 X156.481 Y104.296 E.01275
G1 X156.018 Y104.675 E.01876
G1 X155.705 Y104.984 E.01379
G1 X155.304 Y105.472 E.0198
G1 X155.078 Y105.81 E.01275
G1 X154.78 Y106.368 E.01983
G1 X154.625 Y106.743 E.01272
G1 X154.441 Y107.348 E.01983
G1 X154.362 Y107.746 E.01272
G1 X154.292 Y108.662 E.0288
G1 X154.338 Y109.166 E.01587
G1 X154.441 Y109.809 E.02042
G1 X154.625 Y110.414 E.01983
G1 X154.78 Y110.789 E.01272
G1 X155.078 Y111.346 E.01981
G1 X155.304 Y111.684 E.01275
G1 X155.705 Y112.173 E.01983
G1 X155.992 Y112.46 E.01273
G1 X156.481 Y112.861 E.01983
G1 X156.819 Y113.087 E.01275
G1 X157.483 Y113.438 E.02355
G1 X158.075 Y113.639 E.0196
G1 X158.755 Y113.803 E.02193
G1 X159.383 Y113.865 E.01979
G1 X159.79 Y113.865 E.01276
G1 X160.419 Y113.803 E.01982
G1 X160.988 Y113.672 E.01831
G1 X161.798 Y113.385 E.02694
G1 X162.405 Y113.029 E.02206
M204 S1000
G1 X162.405 Y113.029 F10800
G1 X162.26 Y112.682
M204 S800
G1 F1200
G1 X162.453 Y112.57 E.007
G1 X162.942 Y112.169 E.01983
G1 X163.23 Y111.869 E.01304
G1 X163.763 Y111.169 E.02759
G1 X164.099 Y110.525 E.02278
G1 X163.947 Y112.176 E.05198
G1 X163.677 Y113.943 E.05605
G1 X163.316 Y115.622 E.05385
G1 X162.818 Y117.41 E.0582
G1 X162.243 Y119.074 E.0552
G1 X161.565 Y120.709 E.0555
G1 X160.777 Y122.33 E.05651
G1 X159.899 Y123.885 E.05599
G1 X158.93 Y125.385 E.05599
G1 X157.871 Y126.823 E.05599
G1 X156.738 Y128.182 E.05548
G1 X155.503 Y129.495 E.05652
G1 X154.203 Y130.719 E.05598
G1 X152.831 Y131.863 E.05601
G1 X151.379 Y132.93 E.0565
G1 X149.893 Y133.891 E.05549
G1 X148.338 Y134.769 E.05599
G1 X146.732 Y135.551 E.05601
G1 X145.083 Y136.234 E.05596
G1 X143.352 Y136.83 E.0574
G1 X141.697 Y137.292 E.05388
G1 X139.95 Y137.669 E.05604
G1 X138.184 Y137.939 E.05602
G1 X136.534 Y138.091 E.05195
G1 X137.453 Y137.57 E.03312
G1 X138.177 Y136.934 E.03022
G1 X138.578 Y136.445 E.01983
G1 X138.801 Y136.096 E.01299
G1 X139.188 Y135.304 E.02764
G1 X139.436 Y134.373 E.03021
G1 X139.498 Y133.412 E.03019
G1 X139.434 Y132.767 E.02032
G1 X139.282 Y132.163 E.01953
G1 X139.06 Y131.545 E.02059
G1 X138.578 Y130.712 E.03018
G1 X137.942 Y129.988 E.03022
G1 X137.177 Y129.402 E.03021
G1 X136.312 Y128.977 E.03022
G1 X135.482 Y128.742 E.02705
G1 X134.976 Y128.694 E.01594
G1 X134.377 Y128.671 E.0188
G1 X133.465 Y128.794 E.02885
G1 X132.554 Y129.105 E.03018
G1 X131.72 Y129.587 E.0302
G1 X131.232 Y129.988 E.0198
G1 X130.974 Y130.251 E.01155
G1 X130.411 Y130.988 E.02908
G1 X130.069 Y131.633 E.02289
G1 X129.887 Y132.176 E.01796
G1 X129.737 Y132.783 E.0196
G1 X129.675 Y133.745 E.03023
G1 X129.737 Y134.373 E.01979
G1 X129.854 Y134.87 E.01601
G1 X130.113 Y135.612 E.02464
G1 X130.596 Y136.445 E.03019
G1 X130.996 Y136.934 E.01981
G1 X131.296 Y137.222 E.01304
G1 X131.996 Y137.754 E.02757
G1 X132.64 Y138.091 E.02279
G1 X130.989 Y137.939 E.05198
G1 X129.223 Y137.668 E.05602
G1 X127.543 Y137.308 E.05387
G1 X125.755 Y136.81 E.0582
G1 X124.091 Y136.235 E.0552
G1 X122.456 Y135.557 E.0555
G1 X120.835 Y134.769 E.05651
G1 X119.28 Y133.891 E.05599
G1 X117.781 Y132.921 E.05598
G1 X116.342 Y131.863 E.056
G1 X114.983 Y130.73 E.05548
G1 X113.67 Y129.495 E.05652
G1 X112.446 Y128.195 E.05598
G1 X111.302 Y126.823 E.05601
G1 X110.235 Y125.371 E.0565
G1 X109.274 Y123.885 E.05549
G1 X108.396 Y122.329 E.05602
G1 X107.614 Y120.724 E.05598
G1 X106.931 Y119.075 E.05596
G1 X106.335 Y117.344 E.0574
G1 X105.874 Y115.689 E.05387
G1 X105.497 Y113.942 E.05604
G1 X105.226 Y112.176 E.05602
G1 X105.074 Y110.526 E.05195
G1 X105.596 Y111.445 E.03314
G1 X106.232 Y112.169 E.03022
M73 Q0 S101
G1 X106.72 Y112.57 E.0198
G1 X107.069 Y112.793 E.01299
G1 X107.861 Y113.179 E.02762
G1 X108.792 Y113.428 E.03022
G1 X109.753 Y113.49 E.03019
G1 X110.398 Y113.426 E.02032
G1 X111.002 Y113.274 E.01953
G1 X111.62 Y113.052 E.02059
G1 X112.453 Y112.57 E.03018
G1 X113.177 Y111.934 E.03022
G1 X113.763 Y111.169 E.03021
G1 X114.188 Y110.304 E.03022
G1 X114.371 Y109.7 E.01979
G1 X114.436 Y109.373 E.01045
G1 X114.494 Y108.788 E.01843
G1 X114.498 Y108.412 E.01179
G1 X114.436 Y107.783 E.01982
G1 X114.371 Y107.457 E.01042
G1 X114.06 Y106.545 E.03021
G1 X113.578 Y105.712 E.03018
G1 X113.177 Y105.223 E.01983
G1 X112.914 Y104.965 E.01155
G1 X112.177 Y104.402 E.02908
G1 X111.532 Y104.061 E.02288
G1 X110.989 Y103.879 E.01796
G1 X110.36 Y103.727 E.02029
G1 X109.377 Y103.671 E.03087
G1 X108.792 Y103.729 E.01843
G1 X108.295 Y103.846 E.01601
G1 X107.554 Y104.105 E.02461
G1 X106.72 Y104.587 E.0302
